icons/pw.svg

<?xml version="1.0" ?>
<svg xmlns="http://www.w3.org/2000/svg" xmlns:ev="http://www.w3.org/2001/xml-events" xmlns:xlink="http://www.w3.org/1999/xlink" baseProfile="full" height="600px" version="1.1" viewBox="-223.6045398457942 -1025.8385406212492 10687.411825084297 12294.924684953974" width="522px">
	<defs/>
	<path d="M 5933.0,10187.0 C 5906.0,10141.0 5895.0,10132.0 5853.0,10119.0 C 5815.0,10108.0 5802.0,10098.0 5791.0,10073.0 C 5780.0,10048.0 5765.0,10037.0 5717.0,10019.0 C 5630.0,9986.0 5598.0,9954.0 5564.0,9864.0 L 5535.0,9789.0 L 5408.0,9719.0 C 5337.0,9680.0 5234.0,9630.0 5178.0,9606.0 C 5080.0,9565.0 5063.0,9562.0 4794.0,9526.0 L 4514.0,9489.0 L 4414.0,9511.0 C 4360.0,9522.0 4298.0,9541.0 4278.0,9551.0 C 4250.0,9565.0 4219.0,9570.0 4152.0,9570.0 C 4092.0,9570.0 4045.0,9576.0 4009.0,9588.0 C 3955.0,9606.0 3952.0,9606.0 3510.0,9569.0 C 3072.0,9533.0 3065.0,9532.0 3048.0,9551.0 C 3039.0,9562.0 3030.0,9576.0 3028.0,9582.0 C 3024.0,9592.0 2999.0,9591.0 2917.0,9579.0 C 2814.0,9564.0 2809.0,9564.0 2759.0,9585.0 C 2714.0,9603.0 2699.0,9604.0 2640.0,9596.0 C 2575.0,9587.0 2571.0,9588.0 2516.0,9618.0 L 2460.0,9650.0 L 2278.0,9650.0 C 2028.0,9650.0 1755.0,9632.0 1708.0,9613.0 C 1674.0,9599.0 1668.0,9599.0 1647.0,9613.0 C 1606.0,9640.0 1575.0,9624.0 1516.0,9546.0 C 1447.0,9456.0 1427.0,9392.0 1436.0,9295.0 L 1442.0,9225.0 L 1519.0,9145.0 C 1562.0,9101.0 1624.0,9026.0 1657.0,8979.0 C 1707.0,8908.0 1718.0,8885.0 1722.0,8842.0 C 1726.0,8799.0 1735.0,8781.0 1769.0,8740.0 C 1810.0,8692.0 1812.0,8686.0 1821.0,8593.0 C 1829.0,8513.0 1848.0,8444.0 1922.0,8220.0 C 1972.0,8069.0 2023.0,7925.0 2036.0,7900.0 C 2070.0,7835.0 2114.0,7647.0 2155.0,7390.0 C 2186.0,7198.0 2198.0,7146.0 2240.0,7035.0 C 2266.0,6964.0 2291.0,6886.0 2295.0,6863.0 C 2299.0,6839.0 2306.0,6820.0 2311.0,6820.0 C 2316.0,6820.0 2320.0,6809.0 2320.0,6795.0 C 2320.0,6781.0 2330.0,6750.0 2341.0,6727.0 C 2358.0,6695.0 2361.0,6680.0 2353.0,6660.0 C 2341.0,6627.0 2353.0,6598.0 2390.0,6577.0 C 2415.0,6562.0 2419.0,6552.0 2426.0,6494.0 C 2430.0,6452.0 2443.0,6407.0 2462.0,6371.0 C 2478.0,6340.0 2531.0,6220.0 2581.0,6103.0 L 2671.0,5891.0 L 2664.0,5498.0 L 2657.0,5105.0 L 2597.0,4970.0 C 2548.0,4860.0 2494.0,4701.0 2503.0,4694.0 C 2540.0,4667.0 2548.0,4670.0 2604.0,4734.0 C 2677.0,4817.0 2700.0,4881.0 2700.0,5004.0 C 2700.0,5147.0 2705.0,5162.0 2762.0,5205.0 C 2810.0,5243.0 2812.0,5243.0 2830.0,5224.0 C 2846.0,5209.0 2851.0,5179.0 2861.0,5067.0 C 2867.0,4990.0 2868.0,4925.0 2864.0,4921.0 C 2859.0,4917.0 2835.0,4907.0 2810.0,4900.0 C 2768.0,4888.0 2767.0,4886.0 2790.0,4879.0 L 2815.0,4872.0 L 2793.0,4865.0 C 2761.0,4855.0 2764.0,4842.0 2811.0,4794.0 L 2851.0,4753.0 L 2844.0,4681.0 L 2837.0,4610.0 L 2692.0,4610.0 C 2572.0,4610.0 2543.0,4607.0 2529.0,4594.0 C 2511.0,4578.0 2511.0,4576.0 2531.0,4549.0 C 2551.0,4520.0 2553.0,4520.0 2651.0,4520.0 L 2750.0,4520.0 L 2750.0,4478.0 L 2751.0,4435.0 L 2784.0,4471.0 L 2818.0,4508.0 L 2824.0,4478.0 C 2835.0,4422.0 2830.0,4337.0 2809.0,4226.0 C 2789.0,4119.0 2787.0,4113.0 2742.0,4068.0 C 2701.0,4026.0 2690.0,4020.0 2641.0,4014.0 C 2589.0,4008.0 2582.0,4004.0 2551.0,3963.0 C 2519.0,3920.0 2518.0,3914.0 2523.0,3856.0 C 2526.0,3823.0 2532.0,3786.0 2535.0,3774.0 C 2540.0,3757.0 2519.0,3735.0 2396.0,3637.0 C 2316.0,3573.0 2227.0,3505.0 2198.0,3486.0 C 2169.0,3467.0 2115.0,3423.0 2078.0,3388.0 L 2011.0,3325.0 L 1996.0,3188.0 L 1981.0,3050.0 L 2014.0,2953.0 C 2044.0,2865.0 2083.0,2786.0 2134.0,2708.0 C 2144.0,2693.0 2179.0,2668.0 2213.0,2652.0 C 2247.0,2636.0 2292.0,2607.0 2313.0,2589.0 L 2352.0,2555.0 L 2336.0,2500.0 C 2312.0,2421.0 2242.0,2335.0 2114.0,2232.0 C 2013.0,2150.0 2001.0,2136.0 1977.0,2078.0 C 1950.0,2016.0 1947.0,2013.0 1863.0,1965.0 C 1792.0,1923.0 1759.0,1895.0 1668.0,1796.0 C 1608.0,1731.0 1528.0,1631.0 1490.0,1575.0 C 1452.0,1519.0 1359.0,1397.0 1283.0,1305.0 C 1207.0,1213.0 1129.0,1116.0 1110.0,1090.0 C 1054.0,1015.0 831.0,743.0 752.0,653.0 C 660.0,549.0 652.0,520.0 701.0,459.0 L 734.0,417.0 L 882.0,424.0 C 1018.0,431.0 1055.0,428.0 1167.0,405.0 C 1180.0,402.0 1208.0,372.0 1236.0,332.0 C 1276.0,273.0 1294.0,258.0 1359.0,222.0 C 1401.0,200.0 1487.0,159.0 1551.0,132.0 C 1656.0,87.0 1675.0,82.0 1771.0,76.0 C 1828.0,72.0 1949.0,62.0 2039.0,54.0 C 2190.0,41.0 2207.0,41.0 2247.0,56.0 C 2284.0,70.0 2300.0,71.0 2360.0,61.0 C 2416.0,52.0 2450.0,53.0 2542.0,66.0 C 2684.0,86.0 2793.0,80.0 2882.0,47.0 C 2918.0,33.0 2981.0,16.0 3023.0,10.0 C 3090.0,-1.0 3110.0,0.0 3216.0,20.0 L 3335.0,42.0 L 3445.0,130.0 C 3506.0,179.0 3634.0,288.0 3730.0,374.0 L 3905.0,530.0 L 4080.0,604.0 C 4176.0,645.0 4281.0,689.0 4314.0,702.0 C 4366.0,722.0 4383.0,737.0 4465.0,835.0 C 4593.0,987.0 4841.0,1247.0 4922.0,1314.0 C 4958.0,1345.0 5083.0,1443.0 5198.0,1533.0 C 5392.0,1684.0 5420.0,1709.0 5553.0,1861.0 C 5658.0,1981.0 5747.0,2070.0 5886.0,2191.0 C 5990.0,2282.0 6136.0,2415.0 6210.0,2486.0 C 6418.0,2687.0 6587.0,2824.0 6771.0,2944.0 C 6813.0,2971.0 6854.0,3006.0 6863.0,3022.0 C 6880.0,3052.0 6942.0,3084.0 7007.0,3096.0 C 7064.0,3106.0 7141.0,3154.0 7195.0,3211.0 C 7242.0,3261.0 7245.0,3262.0 7290.0,3258.0 C 7316.0,3255.0 7350.0,3244.0 7366.0,3233.0 C 7417.0,3197.0 7434.0,3197.0 7486.0,3230.0 C 7512.0,3246.0 7539.0,3260.0 7546.0,3260.0 C 7553.0,3260.0 7563.0,3283.0 7570.0,3310.0 C 7579.0,3350.0 7590.0,3366.0 7619.0,3387.0 C 7639.0,3402.0 7675.0,3433.0 7700.0,3456.0 C 7733.0,3486.0 7759.0,3501.0 7799.0,3510.0 C 7841.0,3520.0 7856.0,3529.0 7869.0,3552.0 C 7916.0,3639.0 7941.0,3670.0 7960.0,3670.0 C 7987.0,3670.0 8060.0,3728.0 8060.0,3750.0 C 8060.0,3760.0 8071.0,3784.0 8085.0,3804.0 C 8120.0,3856.0 8120.0,3924.0 8085.0,3952.0 C 8065.0,3968.0 8060.0,3980.0 8060.0,4017.0 C 8060.0,4059.0 8064.0,4066.0 8109.0,4107.0 C 8143.0,4137.0 8160.0,4162.0 8164.0,4185.0 C 8168.0,4205.0 8192.0,4245.0 8220.0,4278.0 C 8270.0,4338.0 8340.0,4469.0 8340.0,4503.0 C 8340.0,4513.0 8362.0,4563.0 8389.0,4613.0 C 8416.0,4664.0 8454.0,4755.0 8474.0,4815.0 C 8507.0,4914.0 8517.0,4933.0 8576.0,5003.0 C 8613.0,5045.0 8653.0,5083.0 8666.0,5086.0 C 8697.0,5094.0 8726.0,5135.0 8735.0,5183.0 C 8743.0,5225.0 8806.0,5319.0 8850.0,5357.0 C 8867.0,5370.0 8887.0,5394.0 8896.0,5409.0 C 8905.0,5424.0 8939.0,5451.0 8972.0,5469.0 C 9009.0,5490.0 9042.0,5518.0 9060.0,5544.0 C 9109.0,5612.0 9129.0,5628.0 9182.0,5635.0 C 9249.0,5644.0 9279.0,5677.0 9248.0,5708.0 C 9239.0,5717.0 9243.0,5720.0 9266.0,5720.0 C 9291.0,5720.0 9303.0,5729.0 9327.0,5763.0 C 9344.0,5786.0 9363.0,5824.0 9369.0,5848.0 C 9378.0,5878.0 9389.0,5894.0 9411.0,5906.0 C 9433.0,5917.0 9452.0,5943.0 9481.0,6003.0 C 9502.0,6047.0 9520.0,6091.0 9520.0,6099.0 C 9520.0,6107.0 9532.0,6133.0 9546.0,6158.0 C 9567.0,6193.0 9570.0,6207.0 9562.0,6225.0 C 9555.0,6240.0 9555.0,6271.0 9563.0,6323.0 C 9573.0,6395.0 9572.0,6402.0 9547.0,6467.0 C 9532.0,6505.0 9511.0,6585.0 9499.0,6646.0 C 9484.0,6726.0 9460.0,6802.0 9407.0,6932.0 L 9336.0,7110.0 L 9258.0,7187.0 L 9180.0,7265.0 L 9153.0,7248.0 C 9132.0,7235.0 9124.0,7219.0 9114.0,7171.0 C 9107.0,7138.0 9099.0,7106.0 9096.0,7101.0 C 9084.0,7082.0 9036.0,7084.0 8974.0,7106.0 C 8938.0,7119.0 8890.0,7130.0 8866.0,7130.0 C 8833.0,7130.0 8809.0,7139.0 8762.0,7170.0 C 8709.0,7204.0 8696.0,7218.0 8665.0,7282.0 C 8645.0,7322.0 8590.0,7423.0 8543.0,7505.0 C 8476.0,7624.0 8449.0,7662.0 8414.0,7688.0 C 8379.0,7714.0 8370.0,7727.0 8370.0,7750.0 C 8370.0,7773.0 8362.0,7785.0 8331.0,7805.0 C 8298.0,7827.0 8292.0,7838.0 8286.0,7876.0 C 8282.0,7907.0 8285.0,7930.0 8295.0,7950.0 C 8315.0,7988.0 8315.0,7987.0 8279.0,7995.0 C 8256.0,8000.0 8244.0,8012.0 8227.0,8046.0 C 8216.0,8070.0 8199.0,8092.0 8190.0,8095.0 C 8180.0,8098.0 8168.0,8118.0 8161.0,8140.0 C 8155.0,8162.0 8143.0,8180.0 8136.0,8180.0 C 8127.0,8180.0 8120.0,8197.0 8116.0,8225.0 C 8109.0,8266.0 8106.0,8270.0 8081.0,8270.0 C 8059.0,8270.0 8052.0,8277.0 8042.0,8304.0 C 8035.0,8322.0 8011.0,8359.0 7989.0,8384.0 L 7948.0,8430.0 L 7918.0,8409.0 C 7902.0,8397.0 7884.0,8377.0 7878.0,8364.0 C 7872.0,8351.0 7859.0,8340.0 7848.0,8340.0 C 7833.0,8340.0 7830.0,8348.0 7830.0,8390.0 C 7830.0,8437.0 7828.0,8442.0 7796.0,8461.0 C 7777.0,8472.0 7759.0,8492.0 7756.0,8505.0 C 7747.0,8542.0 7714.0,8536.0 7660.0,8488.0 C 7593.0,8426.0 7492.0,8350.0 7480.0,8350.0 C 7474.0,8350.0 7448.0,8361.0 7422.0,8374.0 C 7388.0,8392.0 7293.0,8484.0 7075.0,8710.0 L 6775.0,9022.0 L 6764.0,9154.0 C 6757.0,9237.0 6747.0,9297.0 6736.0,9317.0 C 6727.0,9335.0 6720.0,9364.0 6720.0,9382.0 C 6720.0,9406.0 6706.0,9434.0 6670.0,9484.0 C 6643.0,9522.0 6620.0,9561.0 6620.0,9571.0 C 6620.0,9581.0 6613.0,9608.0 6603.0,9631.0 C 6591.0,9662.0 6590.0,9677.0 6597.0,9690.0 C 6603.0,9699.0 6629.0,9745.0 6655.0,9793.0 L 6701.0,9879.0 L 6653.0,9944.0 C 6613.0,9998.0 6591.0,10017.0 6520.0,10056.0 C 6463.0,10088.0 6425.0,10117.0 6403.0,10145.0 C 6377.0,10180.0 6364.0,10188.0 6328.0,10193.0 C 6304.0,10196.0 6274.0,10197.0 6262.0,10193.0 C 6247.0,10190.0 6226.0,10197.0 6199.0,10215.0 C 6159.0,10241.0 6156.0,10241.0 6121.0,10227.0 C 6057.0,10199.0 6045.0,10198.0 6025.0,10220.0 C 5994.0,10255.0 5968.0,10245.0 5933.0,10187.0" fill="pink"/>
</svg>

<?xml version="1.0" standalone="no"?>
<!DOCTYPE svg PUBLIC "-//W3C//DTD SVG 20010904//EN"
 "http://www.w3.org/TR/2001/REC-SVG-20010904/DTD/svg10.dtd">
<svg version="1.0" xmlns="http://www.w3.org/2000/svg"
 width="1024.000000pt" height="1024.000000pt" viewBox="0 0 1024.000000 1024.000000"
 preserveAspectRatio="xMidYMid meet">
<metadata>
Created by potrace 1.10, written by Peter Selinger 2001-2011
</metadata>
<g transform="translate(0.000000,1024.000000) scale(0.100000,-0.100000)"
fill="#000000" stroke="none">
<path d="M5933 10187 c-27 -46 -38 -55 -80 -68 -38 -11 -51 -21 -62 -46 -11
-25 -26 -36 -74 -54 -87 -33 -119 -65 -153 -155 l-29 -75 -127 -70 c-71 -39
-174 -89 -230 -113 -98 -41 -115 -44 -384 -80 l-280 -37 -100 22 c-54 11 -116
30 -136 40 -28 14 -59 19 -126 19 -60 0 -107 6 -143 18 -54 18 -57 18 -499
-19 -438 -36 -445 -37 -462 -18 -9 11 -18 25 -20 31 -4 10 -29 9 -111 -3 -103
-15 -108 -15 -158 6 -45 18 -60 19 -119 11 -65 -9 -69 -8 -124 22 l-56 32
-182 0 c-250 0 -523 -18 -570 -37 -34 -14 -40 -14 -61 0 -41 27 -72 11 -131
-67 -69 -90 -89 -154 -80 -251 l6 -70 77 -80 c43 -44 105 -119 138 -166 50
-71 61 -94 65 -137 4 -43 13 -61 47 -102 41 -48 43 -54 52 -147 8 -80 27 -149
101 -373 50 -151 101 -295 114 -320 34 -65 78 -253 119 -510 31 -192 43 -244
85 -355 26 -71 51 -149 55 -172 4 -24 11 -43 16 -43 5 0 9 -11 9 -25 0 -14 10
-45 21 -68 17 -32 20 -47 12 -67 -12 -33 0 -62 37 -83 25 -15 29 -25 36 -83 4
-42 17 -87 36 -123 16 -31 69 -151 119 -268 l90 -212 -7 -393 -7 -393 -60
-135 c-49 -110 -103 -269 -94 -276 37 -27 45 -24 101 40 73 83 96 147 96 270
0 143 5 158 62 201 48 38 50 38 68 19 16 -15 21 -45 31 -157 6 -77 7 -142 3
-146 -5 -4 -29 -14 -54 -21 -42 -12 -43 -14 -20 -21 l25 -7 -22 -7 c-32 -10
-29 -23 18 -71 l40 -41 -7 -72 -7 -71 -145 0 c-120 0 -149 -3 -163 -16 -18
-16 -18 -18 2 -45 20 -29 22 -29 120 -29 l99 0 0 -42 1 -43 33 36 34 37 6 -30
c11 -56 6 -141 -15 -252 -20 -107 -22 -113 -67 -158 -41 -42 -52 -48 -101 -54
-52 -6 -59 -10 -90 -51 -32 -43 -33 -49 -28 -107 3 -33 9 -70 12 -82 5 -17
-16 -39 -139 -137 -80 -64 -169 -132 -198 -151 -29 -19 -83 -63 -120 -98 l-67
-63 -15 -137 -15 -138 33 -97 c30 -88 69 -167 120 -245 10 -15 45 -40 79 -56
34 -16 79 -45 100 -63 l39 -34 -16 -55 c-24 -79 -94 -165 -222 -268 -101 -82
-113 -96 -137 -154 -27 -62 -30 -65 -114 -113 -71 -42 -104 -70 -195 -169 -60
-65 -140 -165 -178 -221 -38 -56 -131 -178 -207 -270 -76 -92 -154 -189 -173
-215 -56 -75 -279 -347 -358 -437 -92 -104 -100 -133 -51 -194 l33 -42 148 7
c136 7 173 4 285 -19 13 -3 41 -33 69 -73 40 -59 58 -74 123 -110 42 -22 128
-63 192 -90 105 -45 124 -50 220 -56 57 -4 178 -14 268 -22 151 -13 168 -13
208 2 37 14 53 15 113 5 56 -9 90 -8 182 5 142 20 251 14 340 -19 36 -14 99
-31 141 -37 67 -11 87 -10 193 10 l119 22 110 88 c61 49 189 158 285 244 l175
156 175 74 c96 41 201 85 234 98 52 20 69 35 151 133 128 152 376 412 457 479
36 31 161 129 276 219 194 151 222 176 355 328 105 120 194 209 333 330 104
91 250 224 324 295 208 201 377 338 561 458 42 27 83 62 92 78 17 30 79 62
144 74 57 10 134 58 188 115 47 50 50 51 95 47 26 -3 60 -14 76 -25 51 -36 68
-36 120 -3 26 16 53 30 60 30 7 0 17 23 24 50 9 40 20 56 49 77 20 15 56 46
81 69 33 30 59 45 99 54 42 10 57 19 70 42 47 87 72 118 91 118 27 0 100 58
100 80 0 10 11 34 25 54 35 52 35 120 0 148 -20 16 -25 28 -25 65 0 42 4 49
49 90 34 30 51 55 55 78 4 20 28 60 56 93 50 60 120 191 120 225 0 10 22 60
49 110 27 51 65 142 85 202 33 99 43 118 102 188 37 42 77 80 90 83 31 8 60
49 69 97 8 42 71 136 115 174 17 13 37 37 46 52 9 15 43 42 76 60 37 21 70 49
88 75 49 68 69 84 122 91 67 9 97 42 66 73 -9 9 -5 12 18 12 25 0 37 9 61 43
17 23 36 61 42 85 9 30 20 46 42 58 22 11 41 37 70 97 21 44 39 88 39 96 0 8
12 34 26 59 21 35 24 49 16 67 -7 15 -7 46 1 98 10 72 9 79 -16 144 -15 38
-36 118 -48 179 -15 80 -39 156 -92 286 l-71 178 -78 77 -78 78 -27 -17 c-21
-13 -29 -29 -39 -77 -7 -33 -15 -65 -18 -70 -12 -19 -60 -17 -122 5 -36 13
-84 24 -108 24 -33 0 -57 9 -104 40 -53 34 -66 48 -97 112 -20 40 -75 141
-122 223 -67 119 -94 157 -129 183 -35 26 -44 39 -44 62 0 23 -8 35 -39 55
-33 22 -39 33 -45 71 -4 31 -1 54 9 74 20 38 20 37 -16 45 -23 5 -35 17 -52
51 -11 24 -28 46 -37 49 -10 3 -22 23 -29 45 -6 22 -18 40 -25 40 -9 0 -16 17
-20 45 -7 41 -10 45 -35 45 -22 0 -29 7 -39 34 -7 18 -31 55 -53 80 l-41 46
-30 -21 c-16 -12 -34 -32 -40 -45 -6 -13 -19 -24 -30 -24 -15 0 -18 8 -18 50
0 47 -2 52 -34 71 -19 11 -37 31 -40 44 -9 37 -42 31 -96 -17 -67 -62 -168
-138 -180 -138 -6 0 -32 11 -58 24 -34 18 -129 110 -347 336 l-300 312 -11
132 c-7 83 -17 143 -28 163 -9 18 -16 47 -16 65 0 24 -14 52 -50 102 -27 38
-50 77 -50 87 0 10 -7 37 -17 60 -12 31 -13 46 -6 59 6 9 32 55 58 103 l46 86
-48 65 c-40 54 -62 73 -133 112 -57 32 -95 61 -117 89 -26 35 -39 43 -75 48
-24 3 -54 4 -66 0 -15 -3 -36 4 -63 22 -40 26 -43 26 -78 12 -64 -28 -76 -29
-96 -7 -31 35 -57 25 -92 -33z"/>
</g>
</svg>
